**kern	**silbe	**kern	**silbe	**harmony	**phrase	**leadinstrument	**rhyme	**timestamp	**harte
*ICvox	*	*ICvox	*	*M4/4	*	*	*	*	*M4/4
*VRlead	*	*VRresponse	*	*	*	*	*	*	*
*Hstimme	*	*Nstimme	*	*	*	*	*	*	*
*A:	*	*A:	*	*A:	*	*	*	*	*A:
*M4/4	*	*M4/4	*	*	*	*	*	*	*
*clefG2	*	*clefG2	*	*	*	*	*	*	*
r;	.	r;	.	1r;	.	r	.	0	N.C.
=1	=1	=1	=1	=1	=1	=1	=1	=1	=1
*>Letter>C	*>Letter>C	*>Letter>C	*>Letter>C	*>Letter>C	*>Letter>C	*>Letter>C	*>Letter>C	*>Letter>C	*>Letter>C
*>Label>Intro	*>Label>Intro	*>Label>Intro	*>Label>Intro	*>Label>Intro	*>Label>Intro	*>Label>Intro	*>Label>Intro	*>Label>Intro	*>Label>Intro
1r	.	1r	.	1AM	newline	r	.	1.199	A:maj
=2	=2	=2	=2	=2	=2	=2	=2	=2	=2
*M2/4	*	*M2/4	*	*M2/4	*M2/4	*M2/4	*	*M2/4	*M2/4
2r	.	2r	.	2AM	.	r	.	3.786	A:maj
=3	=3	=3	=3	=3	=3	=3	=3	=3	=3
*M4/4	*	*M4/4	*	*M4/4	*M4/4	*M4/4	*	*M4/4	*M4/4
1r	.	1r	.	1AM	newline	r	.	5.08	A:5
=4	=4	=4	=4	=4	=4	=4	=4	=4	=4
1r	.	1r	.	1AM	.	r	.	7.578	A:5
=5	=5	=5	=5	=5	=5	=5	=5	=5	=5
1r	.	1r	.	1AM	.	r	.	10.077	A:5
=6	=6	=6	=6	=6	=6	=6	=6	=6	=6
1r	.	1r	.	1AM	.	r	.	12.575	A:5
=7	=7	=7	=7	=7	=7	=7	=7	=7	=7
1r	.	1r	.	1AM	newline	r	.	15.074	A:5
=8	=8	=8	=8	=8	=8	=8	=8	=8	=8
1r	.	1r	.	1AM	.	r	.	17.63	A:5
=9	=9	=9	=9	=9	=9	=9	=9	=9	=9
*>Letter>A	*>Letter>A	*>Letter>A	*>Letter>A	*>Letter>A	*>Letter>A	*>Letter>A	*>Letter>A	*>Letter>A	*>Letter>A
*>Label>Verse	*>Label>Verse	*>Label>Verse	*>Label>Verse	*>Label>Verse	*>Label>Verse	*>Label>Verse	*>Label>Verse	*>Label>Verse	*>Label>Verse
16G	Wal-	1r	.	1AM	newline	voice	.	20.185	A:5
16A	-king	.	.	.	.	.	.	.	.
16A	like	.	.	.	.	.	.	.	.
16G	a	.	.	.	.	.	.	.	.
8A	man	.	.	.	.	.	A	.	.
8r	.	.	.	.	.	.	.	.	.
16G	Hit-	.	.	.	.	.	.	.	.
16A	-ting	.	.	.	.	.	.	.	.
16A	like	.	.	.	.	.	.	.	.
16G	a	.	.	.	.	.	.	.	.
16G	ham-	.	.	.	.	.	.	.	.
16A	-mer	.	.	.	.	.	b	.	.
16G	She's	.	.	.	.	.	.	.	.
16G	a	.	.	.	.	.	.	.	.
=10	=10	=10	=10	=10	=10	=10	=10	=10	=10
16G	ju-	1r	.	1GM	.	voice	.	22.71	G:1
16G	-ven-	.	.	.	.	.	.	.	.
8G	-ile	.	.	.	.	.	.	.	.
16G	scam	.	.	.	.	.	A	.	.
16A	_	.	.	.	.	.	.	.	.
8r	.	.	.	.	.	.	.	.	.
16G	Ne-	.	.	.	.	.	.	.	.
16A	-ver	.	.	.	.	.	.	.	.
16A	was	.	.	.	.	.	.	.	.
16G	a	.	.	.	.	.	.	.	.
16A	qui-	.	.	.	.	.	.	.	.
8E	-tter	.	.	.	.	.	b	.	.
16r	.	.	.	.	.	.	.	.	.
=11	=11	=11	=11	=11	=11	=11	=11	=11	=11
16G	Tas-	1r	.	1DM	.	voice	.	25.236	D:1
16A	-ty	.	.	.	.	.	.	.	.
16A	like	.	.	.	.	.	.	.	.
16G	a	.	.	.	.	.	.	.	.
8A	rain-	.	.	.	.	.	.	.	.
8E	-drop	.	.	.	.	.	C	.	.
8r	.	.	.	.	.	.	.	.	.
8G	She's	.	.	.	.	.	.	.	.
8A	got	.	.	.	.	.	C	.	.
16G	the	.	.	.	.	.	.	.	.
[16A	look	.	.	.	.	.	.	.	.
=12	=12	=12	=12	=12	=12	=12	=12	=12	=12
16A]	_	1r	.	1AM	.	voice	.	27.761	A:1
16r	.	.	.	.	.	.	.	.	.
8r	.	.	.	.	.	.	.	.	.
4r	.	.	.	.	.	.	.	.	.
2r	.	.	.	.	.	.	.	.	.
=13	=13	=13	=13	=13	=13	=13	=13	=13	=13
16G	Hea-	1r	.	1AM	newline	voice	.	30.286	A:1
16A	-ven-	.	.	.	.	.	.	.	.
16A	-ly	.	.	.	.	.	.	.	.
16G	_	.	.	.	.	.	.	.	.
8A	bound	.	.	.	.	.	D	.	.
16r	.	.	.	.	.	.	.	.	.
16A	'Cause	.	.	.	.	.	.	.	.
16G	hea-	.	.	.	.	.	.	.	.
16A	-ven's	.	.	.	.	.	.	.	.
16A	got	.	.	.	.	.	.	.	.
16G	a	.	.	.	.	.	.	.	.
16A	num-	.	.	.	.	.	.	.	.
16A	-ber	.	.	.	.	.	b	.	.
16A	When	.	.	.	.	.	.	.	.
16G	she's	.	.	.	.	.	.	.	.
=14	=14	=14	=14	=14	=14	=14	=14	=14	=14
16G	spin-	1r	.	1GM	.	voice	.	32.791	G:1
16G	-ning	.	.	.	.	.	.	.	.
16G	me	.	.	.	.	.	.	.	.
16G	a-	.	.	.	.	.	.	.	.
8A	-round	.	.	.	.	.	D	.	.
8r	.	.	.	.	.	.	.	.	.
16G	Kis-	.	.	.	.	.	.	.	.
16A	-sing	.	.	.	.	.	.	.	.
16A	is	.	.	.	.	.	.	.	.
16G	a	.	.	.	.	.	.	.	.
16A	col-	.	.	.	.	.	.	.	.
16E	-or	.	.	.	.	.	b	.	.
16r	.	.	.	.	.	.	.	.	.
16E	Her	.	.	.	.	.	.	.	.
=15	=15	=15	=15	=15	=15	=15	=15	=15	=15
16G	lov-	1r	.	1DM	.	voice	.	35.297	D:1
16A	-ing	.	.	.	.	.	.	.	.
16A	is	.	.	.	.	.	.	.	.
16G	a	.	.	.	.	.	.	.	.
8A	wild	.	.	.	.	.	.	.	.
8E	dog	.	.	.	.	.	C	.	.
8r	.	.	.	.	.	.	.	.	.
8G	She's	.	.	.	.	.	.	.	.
8A	got	.	.	.	.	.	C	.	.
16G	the	.	.	.	.	.	.	.	.
[16A	look	.	.	.	.	.	.	.	.
=16	=16	=16	=16	=16	=16	=16	=16	=16	=16
16A]	_	1r	.	1AM	.	voice	.	37.802	A:1
8.r	.	.	.	.	.	.	.	.	.
4r	.	.	.	.	.	.	.	.	.
8r	.	.	.	.	.	.	.	.	.
8G	She's	.	.	.	.	.	.	.	.
8A	got	.	.	.	.	.	.	.	.
16G	the	.	.	.	.	.	.	.	.
[16A	look	.	.	.	.	.	.	.	.
=17	=17	=17	=17	=17	=17	=17	=17	=17	=17
*>Letter>B	*>Letter>B	*>Letter>B	*>Letter>B	*>Letter>B	*>Letter>B	*>Letter>B	*>Letter>B	*>Letter>B	*>Letter>B
*>Label>Chorus	*>Label>Chorus	*>Label>Chorus	*>Label>Chorus	*>Label>Chorus	*>Label>Chorus	*>Label>Chorus	*>Label>Chorus	*>Label>Chorus	*>Label>Chorus
16A]	_	16r	.	1AM	newline	voice	.	40.307	A:5
8.r	.	16~a	Uh	.	.	.	.	.	.
.	.	8cc	she's	.	.	.	.	.	.
4r	.	8b	got	.	.	.	.	.	.
.	.	16a	the	.	.	.	.	.	.
.	.	[16b	look	.	.	.	.	.	.
8r	.	16b]	_	.	.	.	.	.	.
.	.	16cc	_	.	.	.	.	.	.
8G	She's	8r	.	.	.	.	.	.	.
8A	got	4r	.	.	.	.	.	.	.
16G	the	.	.	.	.	.	.	.	.
[16A	look	.	.	.	.	.	.	.	.
=18	=18	=18	=18	=18	=18	=18	=18	=18	=18
16A]	_	16r	.	1AM	.	voice	.	42.836	A:5
8.r	.	16~e	Uh	.	.	.	.	.	.
.	.	8g	she's	.	.	.	.	.	.
4r	.	8a	got	.	.	.	.	.	.
.	.	16g	the	.	.	.	.	.	.
.	.	[16a	look	.	.	.	.	.	.
8r	.	16a]	_	.	.	.	.	.	.
.	.	16g	_	.	.	.	.	.	.
8A	What	16e	_	.	.	.	.	.	.
.	.	16r	.	.	.	.	.	.	.
16A	in	4r	.	.	.	.	.	.	.
8A	the	.	.	.	.	.	.	.	.
[16c	world	.	.	.	.	.	E	.	.
=19	=19	=19	=19	=19	=19	=19	=19	=19	=19
8c]	_	1r	.	2CM	.	voice	.	45.366	C:maj
8c	can	.	.	.	.	.	.	.	.
8c	make	.	.	.	.	.	.	.	.
8c	a	.	.	.	.	.	.	.	.
16B	brown-	.	.	2GM	.	voice	.	46.63	G:maj
8B	-eyed	.	.	.	.	.	.	.	.
8.B	girl	.	.	.	.	.	E	.	.
8B	turn	.	.	.	.	.	.	.	.
=20	=20	=20	=20	=20	=20	=20	=20	=20	=20
8B	blue?	1r	.	1AM	.	voice	F	47.895	A:maj
8A	_	.	.	.	.	.	.	.	.
4r	.	.	.	.	.	.	.	.	.
8r	.	.	.	.	.	.	.	.	.
8A	When	.	.	.	.	.	.	.	.
16A	ev-	.	.	.	.	.	.	.	.
8A	-ery-	.	.	.	.	.	.	.	.
[16c	-thing	.	.	.	.	.	.	.	.
=21	=21	=21	=21	=21	=21	=21	=21	=21	=21
8c]	_	1r	.	2CM	.	voice	.	50.424	C:maj
8c	I'll	.	.	.	.	.	.	.	.
16c	e-	.	.	.	.	.	.	.	.
8c	-ver	.	.	.	.	.	.	.	.
[16B	do	.	.	.	.	.	F	.	.
8B]	_	.	.	2GM	.	voice	.	51.688	G:maj
8B	I	.	.	.	.	.	.	.	.
8B	do	.	.	.	.	.	.	.	.
16B	for	.	.	.	.	.	.	.	.
[16B	you	.	.	.	.	.	F	.	.
=22	=22	=22	=22	=22	=22	=22	=22	=22	=22
16B]	_	1r	.	1AM	.	voice	.	52.953	A:maj
8.A	_	.	.	.	.	.	.	.	.
4r	.	.	.	.	.	.	.	.	.
8r	.	.	.	.	.	.	.	.	.
8A	And	.	.	.	.	.	.	.	.
16A	I	.	.	.	.	.	.	.	.
8.A	go	.	.	.	.	.	.	.	.
=23	=23	=23	=23	=23	=23	=23	=23	=23	=23
8e	la	1r	.	2FM	.	voice	C	55.482	F:maj
16e	la	.	.	.	.	.	C	.	.
[16e	la	.	.	.	.	.	C	.	.
16e]	_	.	.	.	.	.	.	.	.
16e	la	.	.	.	.	.	C	.	.
16d	_	.	.	.	.	.	.	.	.
[16d	la	.	.	.	.	.	C	.	.
16d]	_	.	.	2GM	.	voice	.	56.746	G:maj
16r	.	.	.	.	.	.	.	.	.
8~G	She's	.	.	.	.	.	.	.	.
8~c	got	.	.	.	.	.	C.	.	.
16B	the	.	.	.	.	.	.	.	.
[16B	look	.	.	.	.	.	.	.	.
=24	=24	=24	=24	=24	=24	=24	=24	=24	=24
*>Letter>C	*>Letter>C	*>Letter>C	*>Letter>C	*>Letter>C	*>Letter>C	*>Letter>C	*>Letter>C	*>Letter>C	*>Letter>C
*>Label>Interlude	*>Label>Interlude	*>Label>Interlude	*>Label>Interlude	*>Label>Interlude	*>Label>Interlude	*>Label>Interlude	*>Label>Interlude	*>Label>Interlude	*>Label>Interlude
16B]	_	1r	.	1AM	newline	voice	.	58.011	A:maj
8.A	_	.	.	.	.	.	.	.	.
4r	.	.	.	.	.	.	.	.	.
2r	.	.	.	.	.	.	.	.	.
=25	=25	=25	=25	=25	=25	=25	=25	=25	=25
1r	.	1r	.	1AM	.	voice	.	60.557	A:maj
=26	=26	=26	=26	=26	=26	=26	=26	=26	=26
*>Letter>A	*>Letter>A	*>Letter>A	*>Letter>A	*>Letter>A	*>Letter>A	*>Letter>A	*>Letter>A	*>Letter>A	*>Letter>A
*>Label>Verse	*>Label>Verse	*>Label>Verse	*>Label>Verse	*>Label>Verse	*>Label>Verse	*>Label>Verse	*>Label>Verse	*>Label>Verse	*>Label>Verse
16G	Fi-	1r	.	1AM	newline	voice	.	63.104	A:5
16A	-re	.	.	.	.	.	.	.	.
16A	in	.	.	.	.	.	.	.	.
16G	the	.	.	.	.	.	.	.	.
8A	ice	.	.	.	.	.	G	.	.
8r	.	.	.	.	.	.	.	.	.
16G	Na-	.	.	.	.	.	.	.	.
16A	-ked	.	.	.	.	.	.	.	.
16A	in	.	.	.	.	.	.	.	.
16G	the	.	.	.	.	.	.	.	.
16G	t-	.	.	.	.	.	.	.	.
16A	-bone	.	.	.	.	.	.	.	.
16A	is	.	.	.	.	.	.	.	.
16G	a	.	.	.	.	.	.	.	.
=27	=27	=27	=27	=27	=27	=27	=27	=27	=27
16A	lov-	1r	.	1GM	.	voice	.	65.627	G:1
16G	-er's	.	.	.	.	.	.	.	.
8G	dis-	.	.	.	.	.	.	.	.
16G	-guise	.	.	.	.	.	G	.	.
16A	_	.	.	.	.	.	.	.	.
8r	.	.	.	.	.	.	.	.	.
16G	Bang-	.	.	.	.	.	.	.	.
16A	-ing	.	.	.	.	.	.	.	.
16A	on	.	.	.	.	.	.	.	.
16G	the	.	.	.	.	.	.	.	.
8A	head	.	.	.	.	.	.	.	.
8A	drum	.	.	.	.	.	.	.	.
=28	=28	=28	=28	=28	=28	=28	=28	=28	=28
16G	Sha-	1r	.	1DM	.	voice	.	68.149	D:1
16A	-king	.	.	.	.	.	.	.	.
16A	like	.	.	.	.	.	.	.	.
16G	a	.	.	.	.	.	.	.	.
8A	mad	.	.	.	.	.	.	.	.
8E	bull	.	.	.	.	.	.	.	.
8r	.	.	.	.	.	.	.	.	.
8G	She's	.	.	.	.	.	.	.	.
8A	got	.	.	.	.	.	.	.	.
16G	the	.	.	.	.	.	.	.	.
[16A	look	.	.	.	.	.	.	.	.
=29	=29	=29	=29	=29	=29	=29	=29	=29	=29
16A]	_	1r	.	1AM	.	voice	.	70.672	A:1
8.r	.	.	.	.	.	.	.	.	.
4r	.	.	.	.	.	.	.	.	.
2r	.	.	.	.	.	.	.	.	.
=30	=30	=30	=30	=30	=30	=30	=30	=30	=30
16G	Swa-	1r	.	1AM	newline	voice	.	73.195	A:1
16A	-ying	.	.	.	.	.	.	.	.
16A	to	.	.	.	.	.	.	.	.
16G	the	.	.	.	.	.	.	.	.
8A	band	.	.	.	.	.	A	.	.
8r	.	.	.	.	.	.	.	.	.
16G	Mo-	.	.	.	.	.	.	.	.
16A	-ving	.	.	.	.	.	.	.	.
16A	like	.	.	.	.	.	.	.	.
16G	a	.	.	.	.	.	.	.	.
16A	ha-	.	.	.	.	.	.	.	.
16A	-mmer	.	.	.	.	.	b	.	.
16A	She's	.	.	.	.	.	.	.	.
16G	a	.	.	.	.	.	.	.	.
=31	=31	=31	=31	=31	=31	=31	=31	=31	=31
16A	mir-	1r	.	1GM	.	voice	.	75.703	G:1
16G	-a-	.	.	.	.	.	.	.	.
8G	-cle	.	.	.	.	.	.	.	.
16G	man	.	.	.	.	.	A	.	.
16A	_	.	.	.	.	.	.	.	.
8r	.	.	.	.	.	.	.	.	.
16G	Lo-	.	.	.	.	.	.	.	.
16A	-ving	.	.	.	.	.	.	.	.
16A	is	.	.	.	.	.	.	.	.
16G	the	.	.	.	.	.	.	.	.
16A	o-	.	.	.	.	.	.	.	.
8E	-cean	.	.	.	.	.	.	.	.
16r	.	.	.	.	.	.	.	.	.
=32	=32	=32	=32	=32	=32	=32	=32	=32	=32
16G	Kiss-	1r	.	1DM	.	voice	.	78.211	D:1
16A	-ing	.	.	.	.	.	.	.	.
16A	is	.	.	.	.	.	.	.	.
16G	the	.	.	.	.	.	.	.	.
8A	wet	.	.	.	.	.	.	.	.
8E	sand	.	.	.	.	.	A	.	.
8r	.	.	.	.	.	.	.	.	.
8d	She's	.	.	.	.	.	.	.	.
8d	got	.	.	.	.	.	.	.	.
16B	the	.	.	.	.	.	.	.	.
[16c#	look	.	.	.	.	.	.	.	.
=33	=33	=33	=33	=33	=33	=33	=33	=33	=33
16c#]	_	1r	.	1AM	.	voice	.	80.719	A:1
8.r	.	.	.	.	.	.	.	.	.
4r	.	.	.	.	.	.	.	.	.
8r	.	.	.	.	.	.	.	.	.
8G	She's	.	.	.	.	.	.	.	.
8A	got	.	.	.	.	.	.	.	.
16G	the	.	.	.	.	.	.	.	.
[16A	look	.	.	.	.	.	.	.	.
=34	=34	=34	=34	=34	=34	=34	=34	=34	=34
*>Letter>B	*>Letter>B	*>Letter>B	*>Letter>B	*>Letter>B	*>Letter>B	*>Letter>B	*>Letter>B	*>Letter>B	*>Letter>B
*>Label>Chorus	*>Label>Chorus	*>Label>Chorus	*>Label>Chorus	*>Label>Chorus	*>Label>Chorus	*>Label>Chorus	*>Label>Chorus	*>Label>Chorus	*>Label>Chorus
16A]	_	8r	.	1AM	newline	voice	.	83.227	A:5
16r	.	.	.	.	.	.	.	.	.
8r	.	8cc	she's	.	.	.	.	.	.
4r	.	8b	got	.	.	.	.	.	.
.	.	16a	the	.	.	.	.	.	.
.	.	[16b	look	.	.	.	.	.	.
8r	.	16b]	_	.	.	.	.	.	.
.	.	16cc	_	.	.	.	.	.	.
8G	She's	8r	.	.	.	.	.	.	.
8A	got	4r	.	.	.	.	.	.	.
16G	the	.	.	.	.	.	.	.	.
[16A	look	.	.	.	.	.	.	.	.
=35	=35	=35	=35	=35	=35	=35	=35	=35	=35
16A]	_	16r	.	1AM	.	voice	.	85.758	A:5
8.r	.	16~e	Uh	.	.	.	.	.	.
.	.	8g	she's	.	.	.	.	.	.
4r	.	8a	got	.	.	.	.	.	.
.	.	16g	the	.	.	.	.	.	.
.	.	[16a	look	.	.	.	.	.	.
8r	.	16a]	_	.	.	.	.	.	.
.	.	16g	_	.	.	.	.	.	.
8A	What	16e	_	.	.	.	.	.	.
.	.	16r	.	.	.	.	.	.	.
16A	in	4r	.	.	.	.	.	.	.
8A	the	.	.	.	.	.	.	.	.
[16c	world	.	.	.	.	.	E	.	.
=36	=36	=36	=36	=36	=36	=36	=36	=36	=36
8c]	_	1r	.	2CM	.	voice	.	88.289	C:maj
8c	can	.	.	.	.	.	.	.	.
8c	make	.	.	.	.	.	.	.	.
8c	a	.	.	.	.	.	.	.	.
16B	brown-	.	.	2GM	.	voice	.	89.555	G:maj
8B	-eyed	.	.	.	.	.	.	.	.
8.B	girl	.	.	.	.	.	E	.	.
8B	turn	.	.	.	.	.	.	.	.
=37	=37	=37	=37	=37	=37	=37	=37	=37	=37
8B	blue?	1r	.	1AM	.	voice	F	90.82	A:maj
8A	_	.	.	.	.	.	.	.	.
4r	.	.	.	.	.	.	.	.	.
8r	.	.	.	.	.	.	.	.	.
8A	When	.	.	.	.	.	.	.	.
16A	ev-	.	.	.	.	.	.	.	.
8A	-ery-	.	.	.	.	.	.	.	.
[16c	-thing	.	.	.	.	.	.	.	.
=38	=38	=38	=38	=38	=38	=38	=38	=38	=38
8c]	_	1r	.	2CM	.	voice	.	93.351	C:maj
8c	I'll	.	.	.	.	.	.	.	.
16c	e-	.	.	.	.	.	.	.	.
8c	-ver	.	.	.	.	.	.	.	.
[16B	do	.	.	.	.	.	F	.	.
8B]	_	.	.	2GM	.	voice	.	94.617	G:maj
8B	I	.	.	.	.	.	.	.	.
8B	do	.	.	.	.	.	.	.	.
16B	for	.	.	.	.	.	.	.	.
[16B	you	.	.	.	.	.	F	.	.
=39	=39	=39	=39	=39	=39	=39	=39	=39	=39
16B]	_	1r	.	1AM	.	voice	.	95.883	A:maj
8.A	_	.	.	.	.	.	.	.	.
4r	.	.	.	.	.	.	.	.	.
8r	.	.	.	.	.	.	.	.	.
8A	And	.	.	.	.	.	.	.	.
16A	I	.	.	.	.	.	.	.	.
8.A	go	.	.	.	.	.	.	.	.
=40	=40	=40	=40	=40	=40	=40	=40	=40	=40
8e	la	1r	.	2FM	.	voice	C	98.414	F:maj
16e	la	.	.	.	.	.	C	.	.
[16e	la	.	.	.	.	.	C	.	.
16e]	_	.	.	.	.	.	.	.	.
16e	la	.	.	.	.	.	C	.	.
16d	_	.	.	.	.	.	.	.	.
[16d	la	.	.	.	.	.	C	.	.
16d]	_	.	.	2GM	.	voice	.	99.679	G:maj
16r	.	.	.	.	.	.	.	.	.
8~G	She's	.	.	.	.	.	.	.	.
8~c	got	.	.	.	.	.	C	.	.
16B	the	.	.	.	.	.	.	.	.
[16B	look	.	.	.	.	.	.	.	.
=41	=41	=41	=41	=41	=41	=41	=41	=41	=41
*>Letter>C	*>Letter>C	*>Letter>C	*>Letter>C	*>Letter>C	*>Letter>C	*>Letter>C	*>Letter>C	*>Letter>C	*>Letter>C
*>Label>Interlude	*>Label>Interlude	*>Label>Interlude	*>Label>Interlude	*>Label>Interlude	*>Label>Interlude	*>Label>Interlude	*>Label>Interlude	*>Label>Interlude	*>Label>Interlude
16B]	_	1r	.	1AM	newline	voice	.	100.945	A:maj
16A	_	.	.	.	.	.	.	.	.
8r	.	.	.	.	.	.	.	.	.
4r	.	.	.	.	.	.	.	.	.
2r	.	.	.	.	.	.	.	.	.
=42	=42	=42	=42	=42	=42	=42	=42	=42	=42
4r	.	1r	.	1AM	.	voice	.	103.502	A:maj
4~a	Oww!	.	.	.	.	.	.	.	.
2r	.	.	.	.	.	.	.	.	.
=43	=43	=43	=43	=43	=43	=43	=43	=43	=43
*>Letter>D	*>Letter>D	*>Letter>D	*>Letter>D	*>Letter>D	*>Letter>D	*>Letter>D	*>Letter>D	*>Letter>D	*>Letter>D
*>Label>Bridge	*>Label>Bridge	*>Label>Bridge	*>Label>Bridge	*>Label>Bridge	*>Label>Bridge	*>Label>Bridge	*>Label>Bridge	*>Label>Bridge	*>Label>Bridge
1r	.	1r	.	1EM	newline	voice	.	106.06	E:5
=44	=44	=44	=44	=44	=44	=44	=44	=44	=44
1r	.	1r	.	1AM	.	voice	.	108.577	A:5
=45	=45	=45	=45	=45	=45	=45	=45	=45	=45
1r	.	1r	.	1EM	.	voice	.	111.094	E:5
=46	=46	=46	=46	=46	=46	=46	=46	=46	=46
1r	.	1r	.	1AM	.	voice	.	113.611	A:5
=47	=47	=47	=47	=47	=47	=47	=47	=47	=47
1r	.	1r	.	1EM	newline	voice	.	116.128	E:5
=48	=48	=48	=48	=48	=48	=48	=48	=48	=48
1r	.	1r	.	1AM	.	voice	.	118.662	A:5
=49	=49	=49	=49	=49	=49	=49	=49	=49	=49
1r	.	1r	.	1EM	.	voice	.	121.196	E:5
=50	=50	=50	=50	=50	=50	=50	=50	=50	=50
1r	.	1r	.	1AM	.	voice	.	123.729	A:5
=51	=51	=51	=51	=51	=51	=51	=51	=51	=51
1r	.	1r	.	2GM	newline	voice	.	126.263	G:5
.	.	.	.	2DM	.	voice	.	127.524	D:5
=52	=52	=52	=52	=52	=52	=52	=52	=52	=52
1r	.	1r	.	1AM	.	voice	.	128.784	A:5
=53	=53	=53	=53	=53	=53	=53	=53	=53	=53
1r	.	1r	.	2GM	.	voice	.	131.305	G:5
.	.	.	.	2DM	.	voice	.	132.565	D:5
=54	=54	=54	=54	=54	=54	=54	=54	=54	=54
1r	.	1r	.	1AM	.	voice	.	133.825	A:5
=55	=55	=55	=55	=55	=55	=55	=55	=55	=55
1r	.	1r	.	1AM	.	voice	.	136.346	A:5
=56	=56	=56	=56	=56	=56	=56	=56	=56	=56
*>Letter>E	*>Letter>E	*>Letter>E	*>Letter>E	*>Letter>E	*>Letter>E	*>Letter>E	*>Letter>E	*>Letter>E	*>Letter>E
*>Label>Verse	*>Label>Verse	*>Label>Verse	*>Label>Verse	*>Label>Verse	*>Label>Verse	*>Label>Verse	*>Label>Verse	*>Label>Verse	*>Label>Verse
16~GG	Wal-	1r	.	1AM	newline	voice	.	138.867	A:5
16~AA	-king	.	.	.	.	.	.	.	.
16~AA	like	.	.	.	.	.	.	.	.
16~GG	a	.	.	.	.	.	.	.	.
8~AA	man	.	.	.	.	.	A	.	.
8r	.	.	.	.	.	.	.	.	.
16~GG	Hit-	.	.	.	.	.	.	.	.
16~AA	-ting	.	.	.	.	.	.	.	.
16~AA	like	.	.	.	.	.	.	.	.
16~GG	a	.	.	.	.	.	.	.	.
16~GG	ham-	.	.	.	.	.	.	.	.
16~AA	-mer	.	.	.	.	.	b	.	.
16~GG	She's	.	.	.	.	.	.	.	.
16~GG	a	.	.	.	.	.	.	.	.
=57	=57	=57	=57	=57	=57	=57	=57	=57	=57
16~GG	ju-	1r	.	2GM	.	voice	.	141.4	G:5
16~GG	-ven-	.	.	.	.	.	.	.	.
8~GG	-ile	.	.	.	.	.	.	.	.
8~AA	scam	.	.	.	.	.	A	.	.
8r	.	.	.	.	.	.	.	.	.
16~GG	Ne-	.	.	2DM	.	voice	.	142.667	D:5
16~AA	-ver	.	.	.	.	.	.	.	.
16~AA	was	.	.	.	.	.	.	.	.
16~GG	a	.	.	.	.	.	.	.	.
16~AA	qui-	.	.	.	.	.	.	.	.
8~AA	-tter	.	.	.	.	.	b	.	.
16r	.	.	.	.	.	.	.	.	.
=58	=58	=58	=58	=58	=58	=58	=58	=58	=58
16~GG	Tas-	1r	.	1AM	.	voice	.	143.934	A:5
16~AA	-ty	.	.	.	.	.	.	.	.
16~AA	like	.	.	.	.	.	.	.	.
16~GG	a	.	.	.	.	.	.	.	.
8~AA	rain-	.	.	.	.	.	.	.	.
8~AA	-drop	.	.	.	.	.	C	.	.
8r	.	.	.	.	.	.	.	.	.
8~GG	She's	.	.	.	.	.	.	.	.
8~AA	got	.	.	.	.	.	C	.	.
16~GG	the	.	.	.	.	.	.	.	.
[16~AA	look	.	.	.	.	.	.	.	.
=59	=59	=59	=59	=59	=59	=59	=59	=59	=59
8~AA]	_	1r	.	2GM	.	voice	.	146.468	G:5
8r	.	.	.	.	.	.	.	.	.
4r	.	.	.	.	.	.	.	.	.
8.r	.	.	.	2DM	.	voice	.	147.734	D:5
16~A	And	.	.	.	.	.	.	.	.
16c	she	.	.	.	.	.	.	.	.
8.B	goes...	.	.	.	.	.	.	.	.
=60	=60	=60	=60	=60	=60	=60	=60	=60	=60
*clefG2	*	*	*	*	*	*	*	*	*
16g	Na	1r	.	1AM	newline	voice	C	149.001	A:5
16a	na	.	.	.	.	.	C	.	.
16a	na	.	.	.	.	.	C	.	.
16g	na	.	.	.	.	.	C	.	.
8a	na	.	.	.	.	.	C	.	.
16r	.	.	.	.	.	.	.	.	.
16a	Na	.	.	.	.	.	C	.	.
16g	na	.	.	.	.	.	C	.	.
16a	na	.	.	.	.	.	C	.	.
16a	na	.	.	.	.	.	C	.	.
16g	na	.	.	.	.	.	C	.	.
8a	na	.	.	.	.	.	C	.	.
16a	na	.	.	.	.	.	C	.	.
16a	na	.	.	.	.	.	C	.	.
=61	=61	=61	=61	=61	=61	=61	=61	=61	=61
16a	na	1r	.	1GM	.	voice	C	151.518	G:5
16g	na	.	.	.	.	.	C	.	.
8g	na	.	.	.	.	.	C	.	.
16g	na	.	.	.	.	.	C	.	.
16a	_	.	.	.	.	.	.	.	.
8r	.	.	.	.	.	.	.	.	.
16g	na	.	.	.	.	.	C	.	.
16a	na	.	.	.	.	.	C	.	.
16a	na	.	.	.	.	.	C	.	.
16g	na	.	.	.	.	.	C	.	.
8a	na	.	.	.	.	.	C	.	.
16a	na	.	.	.	.	.	C	.	.
16a	na	.	.	.	.	.	C	.	.
=62	=62	=62	=62	=62	=62	=62	=62	=62	=62
16g	na	1r	.	1DM	.	voice	C	154.035	D:5
16a	na	.	.	.	.	.	C	.	.
16a	na	.	.	.	.	.	C	.	.
16g	na	.	.	.	.	.	C	.	.
8a	na	.	.	.	.	.	C	.	.
8g	na	.	.	.	.	.	C	.	.
8r	.	.	.	.	.	.	.	.	.
8g	She's	.	.	.	.	.	.	.	.
8a	got	.	.	.	.	.	C	.	.
16g	the	.	.	.	.	.	.	.	.
[16a	look	.	.	.	.	.	.	.	.
=63	=63	=63	=63	=63	=63	=63	=63	=63	=63
16a]	_	1r	.	1AM	.	voice	.	156.552	A:5
8.r	.	.	.	.	.	.	.	.	.
4r	.	.	.	.	.	.	.	.	.
8r	.	.	.	.	.	.	.	.	.
8G	She's	.	.	.	.	.	.	.	.
8A	got	.	.	.	.	.	C	.	.
16G	the	.	.	.	.	.	.	.	.
[16A	look	.	.	.	.	.	.	.	.
=64	=64	=64	=64	=64	=64	=64	=64	=64	=64
*>Letter>B	*>Letter>B	*>Letter>B	*>Letter>B	*>Letter>B	*>Letter>B	*>Letter>B	*>Letter>B	*>Letter>B	*>Letter>B
*>Label>Chorus	*>Label>Chorus	*>Label>Chorus	*>Label>Chorus	*>Label>Chorus	*>Label>Chorus	*>Label>Chorus	*>Label>Chorus	*>Label>Chorus	*>Label>Chorus
16A]	_	8r	.	1AM	newline	voice	.	159.068	A:5
16r	.	.	.	.	.	.	.	.	.
8r	.	8ee-	she's	.	.	.	.	.	.
4r	.	8dd	got	.	.	.	.	.	.
.	.	16cc	the	.	.	.	.	.	.
.	.	[16dd	look	.	.	.	.	.	.
8r	.	16dd]	_	.	.	.	.	.	.
.	.	16cc	_	.	.	.	.	.	.
8G	She's	8r	.	.	.	.	.	.	.
8A	got	4r	.	.	.	.	.	.	.
16G	the	.	.	.	.	.	.	.	.
[16A	look	.	.	.	.	.	.	.	.
=65	=65	=65	=65	=65	=65	=65	=65	=65	=65
16A]	_	16r	.	1AM	.	voice	.	161.602	A:5
8.r	.	16~a	Uh	.	.	.	.	.	.
.	.	8cc#	she's	.	.	.	.	.	.
4r	.	8b	got	.	.	.	.	.	.
.	.	16a	the	.	.	.	.	.	.
.	.	[16b	look	.	.	.	.	.	.
8r	.	16b]	_	.	.	.	.	.	.
.	.	16a	_	.	.	.	.	.	.
8A	What	8r	.	.	.	.	.	.	.
16A	in	4r	.	.	.	.	.	.	.
8A	the	.	.	.	.	.	.	.	.
[16c	world	.	.	.	.	.	E	.	.
=66	=66	=66	=66	=66	=66	=66	=66	=66	=66
8c]	_	1r	.	2CM	.	voice	.	164.136	C:maj
8c	can	.	.	.	.	.	.	.	.
8c	make	.	.	.	.	.	.	.	.
8c	a	.	.	.	.	.	.	.	.
16B	brown-	.	.	2GM	.	voice	.	165.403	G:maj
8B	-eyed	.	.	.	.	.	.	.	.
8.B	girl	.	.	.	.	.	E	.	.
8B	turn	.	.	.	.	.	.	.	.
=67	=67	=67	=67	=67	=67	=67	=67	=67	=67
8B	blue?	1r	.	1AM	.	voice	F	166.67	A:maj
8A	_	.	.	.	.	.	.	.	.
4r	.	.	.	.	.	.	.	.	.
8r	.	.	.	.	.	.	.	.	.
8A	When	.	.	.	.	.	.	.	.
16A	ev-	.	.	.	.	.	.	.	.
8A	-ery-	.	.	.	.	.	.	.	.
[16c	-thing	.	.	.	.	.	.	.	.
=68	=68	=68	=68	=68	=68	=68	=68	=68	=68
8c]	_	1r	.	2CM	.	voice	.	169.204	C:maj
8c	I'll	.	.	.	.	.	.	.	.
16c	e-	.	.	.	.	.	.	.	.
8c	-ver	.	.	.	.	.	.	.	.
[16B	do	.	.	.	.	.	F	.	.
8B]	_	.	.	2GM	.	voice	.	170.471	G:maj
8B	I	.	.	.	.	.	.	.	.
8B	do	.	.	.	.	.	.	.	.
16B	for	.	.	.	.	.	.	.	.
[16B	you	.	.	.	.	.	F	.	.
=69	=69	=69	=69	=69	=69	=69	=69	=69	=69
16B]	_	1r	.	1AM	.	voice	.	171.738	A:maj
8.A	_	.	.	.	.	.	.	.	.
4r	.	.	.	.	.	.	.	.	.
8r	.	.	.	.	.	.	.	.	.
8A	And	.	.	.	.	.	.	.	.
16A	I	.	.	.	.	.	.	.	.
8.A	go	.	.	.	.	.	.	.	.
=70	=70	=70	=70	=70	=70	=70	=70	=70	=70
8e	la	1r	.	2FM	.	voice	C	174.272	F:maj
16e	la	.	.	.	.	.	C	.	.
[16e	la	.	.	.	.	.	C	.	.
16e]	_	.	.	.	.	.	.	.	.
16e	la	.	.	.	.	.	C	.	.
16d	_	.	.	.	.	.	.	.	.
[16d	la	.	.	.	.	.	C	.	.
16d]	_	.	.	2GM	.	voice	.	175.539	G:maj
16r	.	.	.	.	.	.	.	.	.
8~e	She's	.	.	.	.	.	.	.	.
8~e	got	.	.	.	.	.	C	.	.
16~d	the	.	.	.	.	.	.	.	.
[16~e	look	.	.	.	.	.	.	.	.
=71	=71	=71	=71	=71	=71	=71	=71	=71	=71
8~e]	_	1r	.	1AM	newline	voice	.	176.806	A:5
8r	.	.	.	.	.	.	.	.	.
4r	.	.	.	.	.	.	.	.	.
8r	.	.	.	.	.	.	.	.	.
8A	What	.	.	.	.	.	.	.	.
16A	in	.	.	.	.	.	.	.	.
8A	the	.	.	.	.	.	.	.	.
[16c	world	.	.	.	.	.	.	.	.
=72	=72	=72	=72	=72	=72	=72	=72	=72	=72
8c]	_	1r	.	2CM	.	voice	.	179.345	C:maj
8r	.	.	.	.	.	.	.	.	.
8r	.	.	.	.	.	.	.	.	.
8c	can	.	.	.	.	.	.	.	.
4B	make	.	.	2GM	.	voice	.	180.614	G:maj
8B	you	.	.	.	.	.	.	.	.
16B	so	.	.	.	.	.	.	.	.
[16B	blue	.	.	.	.	.	F	.	.
=73	=73	=73	=73	=73	=73	=73	=73	=73	=73
16B]	_	1r	.	1AM	.	voice	.	181.884	A:5
8.A	_	.	.	.	.	.	.	.	.
4r	.	.	.	.	.	.	.	.	.
8r	.	.	.	.	.	.	.	.	.
8A	When	.	.	.	.	.	.	.	.
16A	ev-	.	.	.	.	.	.	.	.
16A	-e-	.	.	.	.	.	.	.	.
16A	-ry-	.	.	.	.	.	.	.	.
[16c	-thing	.	.	.	.	.	.	.	.
=74	=74	=74	=74	=74	=74	=74	=74	=74	=74
8c]	_	1r	.	2CM	.	voice	.	184.423	C:maj
8c	I'll	.	.	.	.	.	.	.	.
16c	e-	.	.	.	.	.	.	.	.
8c	-ver	.	.	.	.	.	.	.	.
[16B	do	.	.	.	.	.	F	.	.
8B]	_	.	.	2GM	.	voice	.	185.693	G:maj
8B	I	.	.	.	.	.	.	.	.
8B	do	.	.	.	.	.	.	.	.
16B	for	.	.	.	.	.	.	.	.
[16B	you	.	.	.	.	.	F	.	.
=75	=75	=75	=75	=75	=75	=75	=75	=75	=75
16B]	_	1r	.	1AM	.	voice	.	186.963	A:5
8.A	_	.	.	.	.	.	.	.	.
4r	.	.	.	.	.	.	.	.	.
8r	.	.	.	.	.	.	.	.	.
8A	And	.	.	.	.	.	.	.	.
16A	I	.	.	.	.	.	.	.	.
8.A	go	.	.	.	.	.	.	.	.
=76	=76	=76	=76	=76	=76	=76	=76	=76	=76
8e	la	1r	.	2FM	.	voice	C	189.502	F:maj
16e	la	.	.	.	.	.	C	.	.
[16e	la	.	.	.	.	.	C	.	.
16e]	_	.	.	.	.	.	.	.	.
16e	la	.	.	.	.	.	C	.	.
16d	_	.	.	.	.	.	.	.	.
[16d	la	.	.	.	.	.	C	.	.
16d]	_	.	.	2GM	.	voice	.	190.772	G:maj
16r	.	.	.	.	.	.	.	.	.
8r	.	.	.	.	.	.	.	.	.
4r	.	.	.	.	.	.	.	.	.
=77	=77	=77	=77	=77	=77	=77	=77	=77	=77
*M2/4	*	*M2/4	*	*M2/4	*M2/4	*M2/4	*	*M2/4	*M2/4
2r	.	2r	.	2N	.	voice	.	192.041	N.C.
=78	=78	=78	=78	=78	=78	=78	=78	=78	=78
*M4/4	*	*M4/4	*	*M4/4	*M4/4	*M4/4	*	*M4/4	*M4/4
16g	Na	1r	.	1AM	newline	voice	C	193.311	A:5
16a	na	.	.	.	.	.	C	.	.
16a	na	.	.	.	.	.	C	.	.
16g	na	.	.	.	.	.	C	.	.
8a	na	.	.	.	.	.	C	.	.
16r	.	.	.	.	.	.	.	.	.
16a	Na	.	.	.	.	.	C	.	.
16g	na	.	.	.	.	.	C	.	.
16a	na	.	.	.	.	.	C	.	.
16a	na	.	.	.	.	.	C	.	.
16g	na	.	.	.	.	.	C	.	.
8a	na	.	.	.	.	.	C	.	.
16a	na	.	.	.	.	.	C	.	.
16a	na	.	.	.	.	.	C	.	.
=79	=79	=79	=79	=79	=79	=79	=79	=79	=79
16a	na	1r	.	1GM	.	voice	C	195.804	G:5
16g	na	.	.	.	.	.	C	.	.
8g	na	.	.	.	.	.	C	.	.
16g	na	.	.	.	.	.	C	.	.
16a	_	.	.	.	.	.	.	.	.
8r	.	.	.	.	.	.	.	.	.
16g	na	.	.	.	.	.	C	.	.
16a	na	.	.	.	.	.	C	.	.
16a	na	.	.	.	.	.	C	.	.
16g	na	.	.	.	.	.	C	.	.
8a	na	.	.	.	.	.	C	.	.
16a	na	.	.	.	.	.	C	.	.
16a	na	.	.	.	.	.	C	.	.
=80	=80	=80	=80	=80	=80	=80	=80	=80	=80
16g	na	1r	.	1DM	.	voice	C	198.298	D:5
16a	na	.	.	.	.	.	C	.	.
16a	na	.	.	.	.	.	C	.	.
16g	na	.	.	.	.	.	C	.	.
8a	na	.	.	.	.	.	C	.	.
8g	na	.	.	.	.	.	C	.	.
8r	.	.	.	.	.	.	.	.	.
8g	She's	.	.	.	.	.	.	.	.
8a	got	.	.	.	.	.	C	.	.
16g	the	.	.	.	.	.	.	.	.
[16a	look	.	.	.	.	.	.	.	.
=81	=81	=81	=81	=81	=81	=81	=81	=81	=81
16a]	_	2r	.	1AM	.	voice	.	200.791	A:5
16r	.	.	.	.	.	.	.	.	.
8r	.	.	.	.	.	.	.	.	.
4r	.	.	.	.	.	.	.	.	.
2r	.	8r	.	.	.	.	.	.	.
.	.	16r	.	.	.	.	.	.	.
.	.	16~A	And	.	.	.	.	.	.
.	.	16c	she	.	.	.	.	.	.
.	.	8.B	goes...	.	.	.	.	.	.
=82	=82	=82	=82	=82	=82	=82	=82	=82	=82
16g	Na	1r	.	1AM	newline	voice	C	203.285	A:5
16a	na	.	.	.	.	.	C	.	.
16a	na	.	.	.	.	.	C	.	.
16g	na	.	.	.	.	.	C	.	.
8a	na	.	.	.	.	.	C	.	.
16r	.	.	.	.	.	.	.	.	.
16a	Na	.	.	.	.	.	C	.	.
16g	na	.	.	.	.	.	C	.	.
16a	na	.	.	.	.	.	C	.	.
16a	na	.	.	.	.	.	C	.	.
16g	na	.	.	.	.	.	C	.	.
8a	na	.	.	.	.	.	C	.	.
16a	na	.	.	.	.	.	C	.	.
16a	na	.	.	.	.	.	C	.	.
=83	=83	=83	=83	=83	=83	=83	=83	=83	=83
16a	na	1r	.	1GM	.	voice	C	205.826	G:5
16g	na	.	.	.	.	.	C	.	.
8g	na	.	.	.	.	.	C	.	.
16g	na	.	.	.	.	.	C	.	.
16a	_	.	.	.	.	.	.	.	.
8r	.	.	.	.	.	.	.	.	.
16g	na	.	.	.	.	.	C	.	.
16a	na	.	.	.	.	.	C	.	.
16a	na	.	.	.	.	.	C	.	.
16g	na	.	.	.	.	.	C	.	.
8a	na	.	.	.	.	.	C	.	.
16a	na	.	.	.	.	.	C	.	.
16a	na	.	.	.	.	.	C	.	.
=84	=84	=84	=84	=84	=84	=84	=84	=84	=84
16g	na	1r	.	1DM	.	voice	C	208.368	D:5
16a	na	.	.	.	.	.	C	.	.
16a	na	.	.	.	.	.	C	.	.
16g	na	.	.	.	.	.	C	.	.
8a	na	.	.	.	.	.	C	.	.
8g	na	.	.	.	.	.	C	.	.
8r	.	.	.	.	.	.	.	.	.
8g	She's	.	.	.	.	.	.	.	.
8a	got	.	.	.	.	.	C	.	.
16g	the	.	.	.	.	.	.	.	.
[16a	look	.	.	.	.	.	.	.	.
=85	=85	=85	=85	=85	=85	=85	=85	=85	=85
16a]	_	8r	.	1AM	.	voice	.	210.909	A:5
16r	.	.	.	.	.	.	.	.	.
8r	.	8e	She's	.	.	.	.	.	.
4r	.	8e	got	.	.	.	C	.	.
.	.	16d	the	.	.	.	.	.	.
.	.	16d	look	.	.	.	.	.	.
2r	.	8c	_	.	.	.	.	.	.
.	.	8r	.	.	.	.	.	.	.
.	.	16e	she	.	.	.	.	.	.
.	.	8.e-	goes...	.	.	.	.	.	.
=86	=86	=86	=86	=86	=86	=86	=86	=86	=86
*>Label>>Fadeout	*>Label>>Fadeout	*>Label>>Fadeout	*>Label>>Fadeout	*>Label>>Fadeout	*>Label>>Fadeout	*>Label>>Fadeout	*>Label>>Fadeout	*>Label>>Fadeout	*>Label>>Fadeout
16g	Na	1r	.	1AM	newline	voice	C	213.451	A:5
16a	na	.	.	.	.	.	C	.	.
16a	na	.	.	.	.	.	C	.	.
16g	na	.	.	.	.	.	C	.	.
8a	na	.	.	.	.	.	C	.	.
16r	.	.	.	.	.	.	.	.	.
16a	Na	.	.	.	.	.	C	.	.
16g	na	.	.	.	.	.	C	.	.
16a	na	.	.	.	.	.	C	.	.
16a	na	.	.	.	.	.	C	.	.
16g	na	.	.	.	.	.	C	.	.
8a	na	.	.	.	.	.	C	.	.
16a	na	.	.	.	.	.	C	.	.
16a	na	.	.	.	.	.	C	.	.
=87	=87	=87	=87	=87	=87	=87	=87	=87	=87
16a	na	1r	.	1GM	.	voice	C	215.964	G:5
16g	na	.	.	.	.	.	C	.	.
8g	na	.	.	.	.	.	C	.	.
16g	na	.	.	.	.	.	C	.	.
16a	_	.	.	.	.	.	.	.	.
8r	.	.	.	.	.	.	.	.	.
16g	na	.	.	.	.	.	C	.	.
16a	na	.	.	.	.	.	C	.	.
16a	na	.	.	.	.	.	C	.	.
16g	na	.	.	.	.	.	C	.	.
8a	na	.	.	.	.	.	C	.	.
16a	na	.	.	.	.	.	C	.	.
16a	na	.	.	.	.	.	C	.	.
=88	=88	=88	=88	=88	=88	=88	=88	=88	=88
16g	na	1r	.	1DM	.	voice	C	218.478	D:5
16a	na	.	.	.	.	.	C	.	.
16a	na	.	.	.	.	.	C	.	.
16g	na	.	.	.	.	.	C	.	.
8a	na	.	.	.	.	.	C	.	.
8g	na	.	.	.	.	.	C	.	.
8r	.	.	.	.	.	.	.	.	.
8g	She's	.	.	.	.	.	.	.	.
8a	got	.	.	.	.	.	C	.	.
16g	the	.	.	.	.	.	.	.	.
[16a	look	.	.	.	.	.	.	.	.
=89	=89	=89	=89	=89	=89	=89	=89	=89	=89
16a]	_	8r	.	1AM	.	voice	.	220.992	A:5
16r	.	.	.	.	.	.	.	.	.
8r	.	8e	She's	.	.	.	.	.	.
4r	.	8e	got	.	.	.	C	.	.
.	.	16d	the	.	.	.	.	.	.
.	.	16d	look	.	.	.	.	.	.
2r	.	8c	_	.	.	.	.	.	.
.	.	8r	.	.	.	.	.	.	.
.	.	16e	she	.	.	.	.	.	.
.	.	8.e-	goes...	.	.	.	.	.	.
=90	=90	=90	=90	=90	=90	=90	=90	=90	=90
16g	Na	1r	.	1AM	newline	voice	C	223.505	A:5
16a	na	.	.	.	.	.	C	.	.
16a	na	.	.	.	.	.	C	.	.
16g	na	.	.	.	.	.	C	.	.
8a	na	.	.	.	.	.	C	.	.
16r	.	.	.	.	.	.	.	.	.
16a	Na	.	.	.	.	.	C	.	.
16g	na	.	.	.	.	.	C	.	.
16a	na	.	.	.	.	.	C	.	.
16a	na	.	.	.	.	.	C	.	.
16g	na	.	.	.	.	.	C	.	.
8a	na	.	.	.	.	.	C	.	.
16a	na	.	.	.	.	.	C	.	.
16a	na	.	.	.	.	.	C	.	.
=91	=91	=91	=91	=91	=91	=91	=91	=91	=91
16a	na	1r	.	1GM	.	voice	C	226.047	G:5
16g	na	.	.	.	.	.	C	.	.
8g	na	.	.	.	.	.	C	.	.
16g	na	.	.	.	.	.	C	.	.
16a	_	.	.	.	.	.	.	.	.
8r	.	.	.	.	.	.	.	.	.
16g	na	.	.	.	.	.	C	.	.
16a	na	.	.	.	.	.	C	.	.
16a	na	.	.	.	.	.	C	.	.
16g	na	.	.	.	.	.	C	.	.
8a	na	.	.	.	.	.	C	.	.
16a	na	.	.	.	.	.	C	.	.
16a	na	.	.	.	.	.	C	.	.
=92	=92	=92	=92	=92	=92	=92	=92	=92	=92
16g	na	1r	.	1DM	.	voice	C	228.589	D:5
16a	na	.	.	.	.	.	C	.	.
16a	na	.	.	.	.	.	C	.	.
16g	na	.	.	.	.	.	C	.	.
8a	na	.	.	.	.	.	C	.	.
8g	na	.	.	.	.	.	C	.	.
8r	.	.	.	.	.	.	.	.	.
8g	She's	.	.	.	.	.	.	.	.
8a	got	.	.	.	.	.	C	.	.
16g	the	.	.	.	.	.	.	.	.
[16a	look	.	.	.	.	.	.	.	.
=93	=93	=93	=93	=93	=93	=93	=93	=93	=93
16a]	_	8r	.	1AM	.	voice	.	231.13	A:5
16r	.	.	.	.	.	.	.	.	.
8r	.	8e	She's	.	.	.	.	.	.
4r	.	8e	got	.	.	.	C	.	.
.	.	16d	the	.	.	.	.	.	.
.	.	16d	look	.	.	.	.	.	.
2r	.	8c	_	.	.	.	.	.	.
.	.	8r	.	.	.	.	.	.	.
.	.	16e	she	.	.	.	.	.	.
.	.	8.e-	goes...	.	.	.	.	.	.
r;	.	r;	.	1r;	.	r	.	236.849	N.C.
r;	.	r;	.	1r;	.	r	.	237.976	N.C.
*-	*-	*-	*-	*-	*-	*-	*-	*-	*-
!!!BillboardChartDate: 1989/03/04
!!!BillboardPeak: 1
!!!BillboardWeeksOnChart: 19
!!!COC: Roxette
!!!ENC: Nathaniel Condit-Schultz
!!!EST: Awating manual error checking and editing.
!!!OTL: The Look
!!!RDF**chordsym: original McGill chord annotation + (implied pitch class set, with bass pitch in first position)
!!!RDF**harmony: **recip + pitch class of root + harmonic quality
!!!RDF**leadinstrument: original McGill primary instrumentation annotation
!!!RDF**phrase: newline = linebreak in original McGill transcription
!!!RDF**timestamp: McGill audio timestamp in seconds
!!!RDT: 2017/01/12/
!!!SampleActualRank: 25
!!!SampleID#: 0567
!!!SampleTargetRank: 25
